X: 18937
T: Indian War Whoop
R: polka
M: 2/4
K: Amajor
e/|a(a/e/) (a/e/)(a/e/)|b(b/e/) (b/e/)(b/e/)|a(a/e/) ae|c/B/A/G/ Az/e/|
a/(e/{g}f/)e/ a/(e/{g}f/)e/|b(e/{g}f/)e/ b/(e/{g}f/)e/|a/g/a/e/ f/a/e/c/|c/B/A/G/ A/c/A/||
|:z/|e/e/e B/B/B|c/c/c d/B/G/E/|AA/c/ BB/d/|c/A/B/G/ AE:|
z/|E(3E/F/G/ AA/A/|A/c/B/A/ G/A/B/E/|c/A/B/c/ d/f/e/d/|c/B/A/G/ Az|
E(3E/F/G/ AA/A/|A/c/B/A/ G/A/B/E/|c/A/B/c/ d/f/e/d/|c/B/A/G/ Az/||

